X: 21122
Q: "With spirit."
M: 3/4
L: 1/8
K: G
|:\
|:\
d4 A>d | f4 d>f | g2e2g2 | f2a2f2 |
f4 A>d | fdAdfd | ge^cege | d4 z2 :|\
|:\
(d^cdcdc) | dcBAG2 | AGFED2 | GABcd2 |\
(e^deded) | edcBAG | FGABcA | G4 z2 :|


